design/assets/item_stats/armor.svg

<svg width="100" height="100" viewBox="0 0 100 100" fill="none" xmlns="http://www.w3.org/2000/svg">
<g clip-path="url(#clip0_56809_528)">
<path d="M0.102173 0.102051H100.102V58.9456C91.2285 78.3333 74.5049 92.2789 50.2728 100.102C26.0407 92.2789 9.31719 78.3333 0.102173 58.9456V0.102051ZM12.0476 12.0068V56.2245C19.5561 70.5102 32.1841 81.0544 50.2728 87.517C68.3616 80.7143 80.9895 70.5102 88.4981 56.2245V12.0068H12.0476ZM23.6517 23.5714H76.5527V52.8231C72.1158 60.6463 58.8052 71.1905 49.9315 74.932C41.0578 71.1905 27.7472 60.6463 23.3104 52.8231L23.6517 23.5714Z" fill="#F16F59"/>
</g>
<defs>
<clipPath id="clip0_56809_528">
<rect width="100" height="100" fill="white"/>
</clipPath>
</defs>
</svg>

<svg height="100" viewBox="0 0 100 100" width="100" xmlns="http://www.w3.org/2000/svg">
    <path
        d="M0 0h100v58.946c-9.873 19.388-26.596 34.334-50.828 42.158-24.233-7.824-40.957-22.77-50.83-42.158V0zm12.048 12.007v44.218c7.518 14.285 20.146 24.83 38.235 31.293 18.089-6.803 30.717-17.347 38.235-31.293V12.007H12.048zm11.604 11.564h52.901v29.252c-4.437 7.823-17.748 18.366-26.622 22.108-8.874-3.742-22.185-14.285-26.622-22.108V23.571z"
        fill="#F16F59" />
</svg>
